X:259
T:South Down Hornpipe TS.259
M:C
L:1/8
Q:1/2=90
S:Thomas Sands’ MS,1810,Lincolnshire
R:.hornpipe
N:Long gap on stave after rest in bar 12
O:England;Lincolnshire
Z:vmp.Ruairidh Greig, 2011
K:F
f3c edcB|BcAB AGFE|FCA,F B,DGB,|A,FG,E FA,CF|
AFfe edcB|BcAB AGFE|FCA,F B,DGB,|A,FG,DF4:|
|:c3d cABd|c3d cABd|cfdf cfdf|cAFAG2z (a/b/)|
c’3d’ c’abd’|c’3d’ c’abd’|c’agf bgfe|f2a2f2z2:|]

